X: 28
T:Mazurca da Bretoña
M:3/4
L:1/8
Q:200
C:Trad
S:Rep. P.Quintana
R:Mazurca
K:D
D2 |: F2 DF DF | A2 E2 {C}E2 | A2 EA EA | {FG}F2 D2{C}D2 |
F2 DF DF | A2  E2 {C}E2 | B2 AG FE |1 D4 {C}D2 :|2 D4 A2
|: d2 cB AG | {FG} F2 DF DF | A2 EG FE | {FG}F2 D2 A2 | d2 cB AG |
{FG}F2 DF DF | A2 EG FE |1 D4 A2 :|2 D2F2 A2 | d2||

